actions/16/draw-halfcircle2.svg

<svg xmlns="http://www.w3.org/2000/svg" viewBox="0 0 16 16">
  <defs id="defs3051">
    <style type="text/css" id="current-color-scheme">
      .ColorScheme-Text {
        color:#808080;
      }
      </style>
  </defs>
 <path style="fill:currentColor;fill-opacity:1;stroke:none" 
     d="m7 2h1c3.314 0 6 2.684 6 5.996 0 3.311-2.686 5.996-6 5.996-.069.019-1 0-1 0v-10.992zm1 .999v9.993c2.761 0 5-2.237 5-4.997 0-2.76-2.239-4.997-5-4.997"
     class="ColorScheme-Text"
     />
</svg>

<svg xmlns="http://www.w3.org/2000/svg" version="1.1" viewBox="0 0 16 16">
 <defs>
  <style id="current-color-scheme" type="text/css">
   .ColorScheme-Text { color:#808080; }
  </style>
 </defs>
 <path class="ColorScheme-Text" d="M 7,2 H 8 C 11.314,2 14,4.684 14,7.996 14,11.307 11.314,13.992 8,13.992 7.931,14.011 7,13.992 7,13.992 V 3 Z M 8,2.999 V 12.992 C 10.761,12.992 13,10.755 13,7.995 13,5.235 10.761,2.998 8,2.998" style="color:#808080;fill:currentColor"/>
</svg>
